X:1
T:Sanctuary (Dannström), 76.76 D
T:Johan Isidor Dannström, 1881
T:Sanctuary (Dannström), 76.76 D
T:Public Domain
C:Johan Isidor Dannstr&#246;m, 1881
Z:Public Domain
%%score ( 1 2 ) ( 3 4 )
L:1/8
M:6/8
K:C
V:1 treble 
V:2 treble 
V:3 bass 
V:4 bass 
V:1
 [EG] | [EG]2 [EG] (CD)[EG] | [^DA]3 [EG]2 [CE] | [CF]2 [CF] [B,G]2 [B,D] | [CE]3- [CE]2 E | %5
 [Ec]2 [Ec] [Ec]2 [EB] | [EB]3 [EA]2 [DF] | [CE]2 [CA] [DB]2 [Ec] | [CA]3- [CA]2 [EA] | %9
 [FA]2 [FA] ([Ac][GB])[FA] | [FA]3 [EG]2 [EG] | [DF]2 [DF] [DA]2 [DF] | (D2 C [B,E]2) [FG] | %13
 ([Ec][GB])[FA] ([EG][DF])[CE] | [CE]3 [CD]2 [CF] | [DF]2 [DF] [DG]2 D | [CE]3- [CE]2 G | %17
 ([Ge][Fd])[Ec] [EG]2 [D^G] | [DB]3 [CA]2 [^Dc] | [Ec]2 [CE] (CA,)[G,B,] | [G,C]3- [G,C]2 |] %21
V:2
 x | x3 G2 x | x6 | x6 | x5 E | x6 | x6 | x6 | x6 | x6 | x6 | x6 | E3 x3 | x6 | x6 | x5 D | x5 G | %17
 x6 | x6 | x3 F2 x | x5 |] %21
V:3
 [C,G,] | [C,G,]2 [C,G,] (E,F,)[C,G,] | [C,^F,]3 [C,G,]2 [C,G,] | [D,G,]2 [D,G,] [G,,G,]2 [G,,G,] | %4
 [C,G,]3- [C,G,]2 [B,,^G,] | [A,,A,]2 [A,,A,] [B,,^G,]2 [B,,G,] | [C,A,]3 [C,A,]2 [D,A,] | %7
 [E,A,]2 [E,A,] [E,^G,]2 [E,G,] | [A,,A,]3- [A,,A,]2 [A,C] | [F,C]2 [F,C] [F,C]2 [F,C] | %10
 [C,C]3 [C,C]2 [^C,_B,] | [D,A,]2 [D,A,] [F,A,]2 [D,A,] | (^G,B,A, [E,G,]2) [D,B,] | %13
 [C,C]2 [C,C] [C,C]2 [C,G,] | [F,A,]3 [F,A,]2 [E,A,] | [D,A,]2 [C,_A,] [B,,G,]2 [B,,G,] | %16
 [C,G,]3- [C,G,]2 G, | [C,C]2 [C,C] [C,C]2 [E,B,] | [F,^G,]3 [F,A,]2 [^F,A,] | %19
 G,2 G, [G,,G,]2 [G,,F,] | [C,E,]3- [C,E,]2 |] %21
V:4
 x | x3 C,2 x | x6 | x6 | x6 | x6 | x6 | x6 | x6 | x6 | x6 | x6 | E,3- x3 | x6 | x6 | x6 | x5 G, | %17
 x6 | x6 | G,2 G, x3 | x5 |] %21

